X: 1
T: the 72nd Highland Gathering
C: P/M Willie Taylor
R: jig
Z: 2014 John Chambers <jc:trillian.mit.edu>
S: Image from George Meikle, via Sylvia Miskoe
N: Part of a set for Berwick Johnnie, in a dance program from 2012
M: 6/8
L: 1/8
K: D
a |\
"D"fef "D7"A>AA | "G"BAB "A7"d2A | "D"fef "Bm"afd | "Em"e3 "A7"e2a |\
"D"fef "D7"A>AA | "G"BAB "F#m"d2A | "Bm"f>ef "A7"afe | "D"d3 d2 :|
"A7"a |\
"D"f2f "D7"f<ad | "G"B>AB "A7"d2A | "D"f>ef "Bm"f<ad | "Em"e3 "A7"e2a |\
"D"f2f "D7"f<ad | "G"B>AB "F#m"d2A | "Bm"f>ef "A7"a>fe | "D"d3 d2 |]
"A7"a |\
"D"f2f "D7"f<ad | "G"B>AB "A7"d2A | "D"f>ef "Bm"f<ad | "Em"e3 "A7"e2a |\
"D"f>ef A>AA | "G"BAB "F#m"d2A | "Bm"f>ef "A7"afe | "D"d3 d2 |]
